images/partner-2.svg

<svg width="128" height="27" fill="none" xmlns="http://www.w3.org/2000/svg"><path d="M100.1 9.8v11h-1.9v-9.2h-5v9.2h-1.9v-11h8.8zM104.3 27h-1.9V9.8h1.9v1.5c1.3-1.6 2.9-1.8 3.8-1.8 3.4 0 5.4 2.9 5.4 5.8 0 3-1.9 5.7-5.3 5.7-1.8 0-3-.8-3.8-1.9l-.1 7.9zm7.2-11.6c0-2.7-1.8-4.1-3.6-4.1s-3.7 1.5-3.7 4.1c0 2.3 1.4 4.1 3.7 4.1 2.2-.1 3.6-1.9 3.6-4.1zM114.4 15.3c0-3.3 2.5-5.8 5.8-5.8s5.8 2.5 5.8 5.8-2.5 5.8-5.8 5.8-5.8-2.4-5.8-5.8zm1.9 0c0 2.7 1.9 4.1 3.9 4.1s3.9-1.4 3.9-4.1c0-2.7-1.9-4.1-3.9-4.1s-3.9 1.5-3.9 4.1zM3.1 9.9h5.1v4.4l7.3-12.6h5.6L12.4 15l4.3 5.8h-5.8L8.2 16v4.8H3.1V9.9z" fill="#fff"/><path d="M16.7 9.9h5v3.5h2.1V9.9h5.1v10.9h-5.1v-4h-2.1v4h-5V9.9zM43.1 20.8h-4.9v-1.1c-.6.7-1.7 1.6-3.5 1.6-2.5 0-5-2.1-5-6 0-3.4 2-5.9 5-5.9 1.9 0 2.9.9 3.5 1.7V9.9h4.9v10.9zm-4.7-5.5c0-1.3-.8-2.1-1.9-2.1-1.1 0-1.9.9-1.9 2.1 0 1.3.8 2.1 1.9 2.1 1.1 0 1.9-.8 1.9-2.1zM49.3 9.9v5.2l2.9-5.2h4.6v10.9H52v-5.4l-2.9 5.4h-4.6V9.9h4.8zM46.6 5h3.1c.1 1.5 1.2 1.6 1.4 1.6.2 0 1.3-.1 1.4-1.6h3.1c-.3 1.8-1.7 3.5-4.5 3.5-2.8-.1-4.2-1.7-4.5-3.5zM70.7 9.9v10.9h-5.1v-7.4h-2.2v10.2h-5.1V9.9h12.4zM85 20.8h-4.9v-1.1c-.6.7-1.7 1.6-3.5 1.6-2.5 0-5-2.1-5-6 0-3.4 2-5.9 5-5.9 1.9 0 2.9.9 3.5 1.7V9.9H85v10.9zm-4.7-5.5c0-1.3-.8-2.1-1.9-2.1-1.1 0-1.9.9-1.9 2.1 0 1.3.8 2.1 1.9 2.1 1.1 0 1.9-.8 1.9-2.1z" fill="#fff"/></svg>

<svg width="128" height="27" viewBox="0 0 128 27" fill="none" xmlns="http://www.w3.org/2000/svg">
<path d="M100.1 9.79999V20.8H98.2V11.6H93.2V20.8H91.3V9.79999H100.1Z" fill="white"/>
<path d="M104.3 27H102.4V9.8H104.3V11.3C105.6 9.7 107.2 9.5 108.1 9.5C111.5 9.5 113.5 12.4 113.5 15.3C113.5 18.3 111.6 21 108.2 21C106.4 21 105.2 20.2 104.4 19.1L104.3 27ZM111.5 15.4C111.5 12.7 109.7 11.3 107.9 11.3C106.1 11.3 104.2 12.8 104.2 15.4C104.2 17.7 105.6 19.5 107.9 19.5C110.1 19.4 111.5 17.6 111.5 15.4Z" fill="white"/>
<path d="M114.4 15.3C114.4 12 116.9 9.5 120.2 9.5C123.5 9.5 126 12 126 15.3C126 18.6 123.5 21.1 120.2 21.1C116.9 21.1 114.4 18.7 114.4 15.3ZM116.3 15.3C116.3 18 118.2 19.4 120.2 19.4C122.2 19.4 124.1 18 124.1 15.3C124.1 12.6 122.2 11.2 120.2 11.2C118.2 11.2 116.3 12.7 116.3 15.3Z" fill="white"/>
<path d="M3.10001 9.90001H8.20001V14.3L15.5 1.70001H21.1L12.4 15L16.7 20.8H10.9L8.20001 16V20.8H3.10001V9.90001Z" fill="white"/>
<path d="M16.7 9.90002H21.7V13.4H23.8V9.90002H28.9V20.8H23.8V16.8H21.7V20.8H16.7V9.90002V9.90002Z" fill="white"/>
<path d="M43.1 20.8H38.2V19.7C37.6 20.4 36.5 21.3 34.7 21.3C32.2 21.3 29.7 19.2 29.7 15.3C29.7 11.9 31.7 9.40002 34.7 9.40002C36.6 9.40002 37.6 10.3 38.2 11.1V9.90002H43.1V20.8ZM38.4 15.3C38.4 14 37.6 13.2 36.5 13.2C35.4 13.2 34.6 14.1 34.6 15.3C34.6 16.6 35.4 17.4 36.5 17.4C37.6 17.4 38.4 16.6 38.4 15.3Z" fill="white"/>
<path d="M49.3 9.9V15.1L52.2 9.9H56.8V20.8H52V15.4L49.1 20.8H44.5V9.9H49.3ZM46.6 5H49.7C49.8 6.5 50.9 6.6 51.1 6.6C51.3 6.6 52.4 6.5 52.5 5H55.6C55.3 6.8 53.9 8.5 51.1 8.5C48.3 8.4 46.9 6.8 46.6 5Z" fill="white"/>
<path d="M70.7 9.90002V20.8H65.6V13.4H63.4V23.6H58.3V9.90002H70.7Z" fill="white"/>
<path d="M85 20.8H80.1V19.7C79.5 20.4 78.4 21.3 76.6 21.3C74.1 21.3 71.6 19.2 71.6 15.3C71.6 11.9 73.6 9.40002 76.6 9.40002C78.5 9.40002 79.5 10.3 80.1 11.1V9.90002H85V20.8ZM80.3 15.3C80.3 14 79.5 13.2 78.4 13.2C77.3 13.2 76.5 14.1 76.5 15.3C76.5 16.6 77.3 17.4 78.4 17.4C79.5 17.4 80.3 16.6 80.3 15.3Z" fill="white"/>
</svg>
